X: 15
T:Jota Popular
M:3/4
L:1/8
Q:200
R:Jota
A:Galicia
K:C
CE CE | GE CE CE | GE CE CE | GE CE CE | D2 B,D B,D | FD B,D B,D | FD B,
D B,D | GA GFED |1 C"F."G :|2
 C4- | C2 D2 C2 |: B,4 C2 | D4 F2 | E3 D C2-| C2 E2 D2 | C4 D2 |E4 G2 |
F3 E D2- | D2 D2 C2 :| B,4 C2 | D4 F2 | E3 D C2- | C6- | C"F.       D.C.
"G ||

